X:1
T:Title
%%score { ( 1 3 ) | ( 2 4 ) }
L:1/8
M:6/8
K:Bb
V:1 treble nm="Grand Piano"
V:3 treble 
V:2 bass 
V:4 bass 
V:1
 z3 z2[Q:1/4=100] [DF] | [DF][DG][DA] [DB][DA][DG] | [EA]3 [EG]2 F | FAB cFc | %4
[M:5/8] [Fd]-[Fd]- [Fd]3 |[M:1/8] d |[M:3/4] de dc BA | c3 B2 B | [=EG][EA] [EB][Ed] [Ec][EB] | %9
[M:5/8] [Fc]-[Fc]- [Fc]3 |[M:1/8] [EF] |[M:3/4] [DF]2 [Fd][Ec] [EG][EA] | [DF]3 [DB]2 [B,FB] | %13
 B,B, [B,GB][Ge] [Gd][Gc] | B3 A2 c | c4 z2 | [Fd]3 [DB]2 [B,FB] | [=E-G]2 E2 z2 | d3 c2 F | %19
 [Fd]3 [Ec] [EG][EA] | [DF]3 [DB]2 [DFB] | DD cd cB | [GB]3 [Ge]2 [Ge] | [Ge]4 z2 | [Fd]4 z2 | %25
 z B, GB AG[Q:1/4=99][Q:1/4=97][Q:1/4=96][Q:1/4=94][Q:1/4=93][Q:1/4=91][Q:1/4=90] | %26
 A3 [DB]3[Q:1/4=88][Q:1/4=87][Q:1/4=85][Q:1/4=84][Q:1/4=82][Q:1/4=81][Q:1/4=79][Q:1/4=78][Q:1/4=76] |] %27
V:2
 z3 z2 [B,,B,] | [B,,B,][B,,B,][B,,B,] [B,,F,][B,,F,][B,,F,] | [C,F,]3 [C,F,]2 [F,A,E] | %3
 [F,A,E][F,E][F,G,E] [F,A,E][F,A,E][F,A,E] |[M:5/8] [B,,B,]-[B,,B,]- [B,,B,]3 | %5
[M:1/8][K:treble] [B,F] |[M:3/4] [B,F][B,G] [B,F][K:bass][F,A,E] [F,B,D][F,CE] | %7
 [G,B,D]3 [G,B,D]2 [G,B,D] | [C,B,][C,A,] [C,G,][C,B,] [C,G,][C,C] | %9
[M:5/8] [F,A,]-[F,A,]- [F,A,]3 |[M:1/8] [F,A,] |[M:3/4] [B,,B,]2 [B,,B,][B,,F,] [B,,F,][B,,F,] | %12
 [B,,B,]2 [B,,B,] [B,,F,]2 D, | E,E, E,[C,B,] [D,=B,][E,C] | [F,DF]3 [F,CF]2 [F,A,E] | E4 z2 | %16
 [B,,B,]2 [B,,B,] [B,,F,]2 D, | C,C, [C,A,][C,G,] [C,C][C,C] | [F,B,F]3 [F,A,F]2 [F,A,] | %19
 [B,,B,]2 [B,,B,][B,,F,] [B,,F,][B,,F,] | [B,,B,]2 [B,,B,] [B,,B,]2 B,, | %21
 B,B,[K:treble] [B,E_A][B,FA] [B,EA][B,DA] | [E,E]3 [E,B,]2 [E,B,] | [C,C]2 C,C, [D,=B,]E, | %24
 F,2 F, [F,B,D]2 [F,B,D] | D4 z2 | [F,CE]3 [B,,B,]3 |] %27
V:3
 x6 | x6 | x6 | x6 |[M:5/8] x5 |[M:1/8] x |[M:3/4] x6 | x6 | x6 |[M:5/8] x5 |[M:1/8] x | %11
[M:3/4] x6 | x6 | [EG]2 z2 z2 | x6 | z2 A,A Bc | x6 | B,B, A[=EB] [EA][EB] | x6 | x6 | x6 | %21
 [_AB]2 z2 z2 | x6 | z2 CC [Gd][CGc] | z2 B, B2 B | F2 z2 z2 | x6 |] %27
V:4
 x6 | x6 | x6 | x6 |[M:5/8] x5 |[M:1/8][K:treble] x |[M:3/4] x3[K:bass] x3 | x6 | x6 |[M:5/8] x5 | %10
[M:1/8] x |[M:3/4] x6 | x6 | x6 | x6 | [F,A,]2 F,[F,CE] [F,G,E][F,A,E] | x6 | x6 | x6 | x6 | x6 | %21
 x2[K:treble] x4 | x6 | x6 | x6 | [F,B,]F, [F,B,][F,CE] [F,CE][F,CE] | x6 |] %27

